X:141
T:Slow Scotch - Camp Duties #2 * 
B:American Veteran Fifer - Camp Duties #2
M:2/4
L:1/16
Q:1/4=90
K:G
%%MIDI channel 1
%%MIDI program 72
%%MIDI transpose 20
%%MIDI grace 1/8
%%MIDI ratio 2 1
D2|G2GA G2D2|GABA G4|d2ef g2d2|dedB A2:||:dBdB e2e2|cBcA d4|GABc d2g2|B2cA G4:||:D2|G2GA G2D2|GABA G4|
d2ef g2d2|dedB A2:||:dBdB e2e2|cBcB d4|GABc d2g2|B2cA G4:||:D2|G2GA G2D2|GABA G4|d2ef g2d2|[1 dedB A4:| [2 BGAF G4||c8|c8|c4 z4||
% Original had too few notes in the second repeat.  Final note in repeat was changed from G2 to G4 to match 4th repeat..
% Original first staff was as follows:
%D2|G2GA G2D2|GABA G4|d2ef g2d2|dedB A2:||:dBdB e2e2|cBcA d4|GABc d2g2|B2cA G2:||:D2|G2GA G2D2|GABA G4|
